svg/logo/mastercard_fill.svg

<?xml version="1.0" encoding="UTF-8"?>
<svg width="24px" height="24px" viewBox="0 0 24 24" version="1.1" xmlns="http://www.w3.org/2000/svg" xmlns:xlink="http://www.w3.org/1999/xlink">
    <title>mastercard_fill</title>
    <g id="Icon" stroke="none" stroke-width="1" fill="none" fill-rule="evenodd">
        <g id="Logo" transform="translate(-96.000000, -240.000000)" fill-rule="nonzero">
            <g id="mastercard_fill" transform="translate(96.000000, 240.000000)">
                <path d="M24,0 L24,24 L0,24 L0,0 L24,0 Z M12.5934901,23.257841 L12.5819402,23.2595131 L12.5108777,23.2950439 L12.4918791,23.2987469 L12.4918791,23.2987469 L12.4767152,23.2950439 L12.4056548,23.2595131 C12.3958229,23.2563662 12.3870493,23.2590235 12.3821421,23.2649074 L12.3780323,23.275831 L12.360941,23.7031097 L12.3658947,23.7234994 L12.3769048,23.7357139 L12.4804777,23.8096931 L12.4953491,23.8136134 L12.4953491,23.8136134 L12.5071152,23.8096931 L12.6106902,23.7357139 L12.6232938,23.7196733 L12.6232938,23.7196733 L12.6266527,23.7031097 L12.609561,23.275831 C12.6075724,23.2657013 12.6010112,23.2592993 12.5934901,23.257841 L12.5934901,23.257841 Z M12.8583906,23.1452862 L12.8445485,23.1473072 L12.6598443,23.2396597 L12.6498822,23.2499052 L12.6498822,23.2499052 L12.6471943,23.2611114 L12.6650943,23.6906389 L12.6699349,23.7034178 L12.6699349,23.7034178 L12.678386,23.7104931 L12.8793402,23.8032389 C12.8914285,23.8068999 12.9022333,23.8029875 12.9078286,23.7952264 L12.9118235,23.7811639 L12.8776777,23.1665331 C12.8752882,23.1545897 12.8674102,23.1470016 12.8583906,23.1452862 L12.8583906,23.1452862 Z M12.1430473,23.1473072 C12.1332178,23.1423925 12.1221763,23.1452606 12.1156365,23.1525954 L12.1099173,23.1665331 L12.0757714,23.7811639 C12.0751323,23.7926639 12.0828099,23.8018602 12.0926481,23.8045676 L12.108256,23.8032389 L12.3092106,23.7104931 L12.3186497,23.7024347 L12.3186497,23.7024347 L12.3225043,23.6906389 L12.340401,23.2611114 L12.337245,23.2485176 L12.337245,23.2485176 L12.3277531,23.2396597 L12.1430473,23.1473072 Z" id="MingCute"></path>
                <path d="M8.5,6 C9.77076,6 10.9563,6.36466 11.9578,6.99504 L11.3632,7.4861 C9.92156,8.67671 9,10.4812 9,12.5 C9,14.5188 9.92156,16.3232 11.3632,17.5139 L11.9578,18.0049 C10.9564,18.6353 9.77077,19 8.5,19 C4.91015,19 2,16.0899 2,12.5 C2,8.91015 4.91015,6 8.5,6 Z M15.5,6 C19.0899,6 22,8.91015 22,12.5 C22,16.0899 19.0899,19 15.5,19 C14.3351,19 13.2417917,18.6935507 12.2963302,18.1569073 L12.0422,18.0049 L12.6368,17.5139 C14.0784,16.3232 15,14.5188 15,12.5 C15,10.5729636 14.1602777,8.84119733 12.830121,7.65222343 L12.6368,7.4861 L12.0422,6.99504 C13.0437,6.36466 14.2292,6 15.5,6 Z M12,9.67115 C12.6261,10.4446 13,11.4284 13,12.5 C13,13.5716 12.6261,14.5554 12,15.3288 C11.3739,14.5554 11,13.5716 11,12.5 C11,11.4284 11.3739,10.4446 12,9.67115 Z" id="形状" fill="#09244B"></path>
            </g>
        </g>
    </g>
</svg>

<svg xmlns="http://www.w3.org/2000/svg" width="24" height="24"><g fill="none" fill-rule="nonzero"><path d="M24 0v24H0V0h24ZM12.593 23.258l-.011.002-.071.035-.02.004-.014-.004-.071-.035c-.01-.004-.019-.001-.024.005l-.004.01-.017.428.005.02.01.013.104.074.015.004.012-.004.104-.074.012-.016.004-.017-.017-.427c-.002-.01-.009-.017-.017-.018Zm.265-.113-.013.002-.185.093-.01.01-.003.011.018.43.005.012.008.007.201.093c.012.004.023 0 .029-.008l.004-.014-.034-.614c-.003-.012-.01-.02-.02-.022Zm-.715.002a.023.023 0 0 0-.027.006l-.006.014-.034.614c0 .012.007.02.017.024l.015-.002.201-.093.01-.008.004-.011.017-.43-.003-.012-.01-.01-.184-.092Z"/><path fill="#09244B" d="M8.5 6a6.47 6.47 0 0 1 3.458.995l-.595.491A6.489 6.489 0 0 0 9 12.5a6.49 6.49 0 0 0 2.363 5.014l.595.49A6.5 6.5 0 1 1 8.5 6Zm7 0a6.5 6.5 0 1 1-3.204 12.157l-.254-.152.595-.491A6.49 6.49 0 0 0 15 12.5c0-1.927-.84-3.659-2.17-4.848l-.193-.166-.595-.491A6.47 6.47 0 0 1 15.5 6ZM12 9.671c.626.774 1 1.757 1 2.829a4.479 4.479 0 0 1-1 2.829 4.479 4.479 0 0 1-1-2.829c0-1.072.374-2.055 1-2.829Z"/></g></svg>
